<?xml version="1.0" encoding="UTF-8"?>
<map version="1.10" tiledversion="1.11.2" orientation="orthogonal" renderorder="right-down" width="12" height="6" tilewidth="16" tileheight="16" infinite="0" nextlayerid="6" nextobjectid="1">
 <editorsettings>
  <export target="../../maps/inventario.json" format="json"/>
 </editorsettings>
 <tileset firstgid="1" source="../tilesets/Main_tiles.tsx"/>
 <tileset firstgid="457" source="../tilesets/Craft.tsx"/>
 <layer id="1" name="Background" width="12" height="6">
  <data encoding="csv">
73,74,74,74,75,0,0,295,296,296,296,298,
97,98,98,98,99,0,0,319,320,320,320,322,
97,98,98,98,99,0,0,319,320,320,320,322,
97,98,98,98,99,0,0,319,320,320,320,322,
97,98,98,98,99,0,0,319,320,320,320,322,
121,122,122,122,123,0,0,343,344,344,344,346
</data>
 </layer>
 <layer id="2" name="tiles" width="12" height="6">
  <data encoding="csv">
0,0,0,0,0,0,0,0,0,0,0,0,
0,334,334,334,0,0,0,0,309,0,309,0,
0,334,334,334,0,0,0,0,0,0,0,0,
0,334,334,334,0,0,0,0,0,0,0,0,
0,334,334,334,0,0,0,0,0,0,309,0,
0,0,0,0,0,0,0,0,0,0,0,0
</data>
 </layer>
 <layer id="5" name="icon_non_interactive" width="12" height="6">
  <data encoding="csv">
0,0,0,0,0,0,0,0,0,0,0,0,
0,0,0,0,0,0,0,0,0,0,0,0,
0,0,0,0,0,0,0,0,0,0,0,0,
0,0,0,0,0,0,0,1429,1430,1431,0,0,
0,0,0,0,0,0,0,1468,1469,1470,0,0,
0,0,0,0,0,0,0,0,0,0,0,0
</data>
 </layer>
 <layer id="3" name="text_craft" width="12" height="6">
  <data encoding="csv">
0,0,0,0,0,0,0,0,0,0,0,0,
0,0,0,0,0,0,0,0,0,0,0,0,
0,0,0,0,0,0,0,0,1523,1524,1525,0,
0,0,0,0,0,0,0,0,1562,1563,1564,0,
0,0,0,0,0,0,0,0,0,0,0,0,
0,0,0,0,0,0,0,0,0,0,0,0
</data>
 </layer>
 <layer id="4" name="selected_icon" width="12" height="6">
  <data encoding="csv">
0,0,0,0,0,0,0,0,0,0,0,0,
0,311,0,0,0,0,0,0,0,0,0,0,
0,0,0,0,0,0,0,0,0,0,0,0,
0,0,0,0,0,0,0,0,0,0,0,0,
0,0,0,0,0,0,0,0,0,0,0,0,
0,0,0,0,0,0,0,0,0,0,0,0
</data>
 </layer>
</map>
